src/images/icons/build-lp.svg

<svg width="23" height="24" viewBox="0 0 23 24" fill="none" xmlns="http://www.w3.org/2000/svg">
<path d="M12.4584 9.58333C12.4584 9.05406 12.0293 8.625 11.5 8.625C10.9708 8.625 10.5417 9.05406 10.5417 9.58333V12.4583H7.66671C7.13743 12.4583 6.70837 12.8874 6.70837 13.4167C6.70837 13.9459 7.13743 14.375 7.66671 14.375H10.5417V17.25C10.5417 17.7793 10.9708 18.2083 11.5 18.2083C12.0293 18.2083 12.4584 17.7793 12.4584 17.25V14.375H15.3334C15.8626 14.375 16.2917 13.9459 16.2917 13.4167C16.2917 12.8874 15.8626 12.4583 15.3334 12.4583H12.4584V9.58333Z" fill="#11E173"/>
<path opacity="0.5" fill-rule="evenodd" clip-rule="evenodd" d="M5.28998 2.53421V4.0353H3.46415H1.33367C0.442958 4.04388 0.026179 4.46847 0.000790589 5.35197C-0.00960559 5.84972 0.0826296 6.34419 0.271598 6.80373C0.607693 7.68523 1.13392 8.47944 1.81181 9.12827C2.34073 9.62721 2.87317 10.1276 3.40915 10.6294C3.62007 10.8146 3.78678 11.046 3.89672 11.306C4.00666 11.566 4.05697 11.8479 4.04385 12.1304C4.02128 13.4327 4.0288 14.736 4.03632 16.0395C4.04009 16.6915 4.04385 17.3434 4.04385 17.9954C4.03626 18.3727 4.05961 18.75 4.11367 19.1234C4.32536 20.4785 5.00631 21.7129 6.03449 22.6053C7.06267 23.4978 8.3708 23.9898 9.72444 23.9933C10.5072 24.0033 11.2833 24 12.0597 23.9967C12.4481 23.995 12.8365 23.9933 13.2259 23.9933C13.6824 23.9939 14.1374 23.9414 14.582 23.8368C15.8289 23.5459 16.9426 22.8373 17.743 21.8256C18.5435 20.8139 18.9839 19.5581 18.9932 18.2613C19.0101 16.1341 19.0059 14.0068 18.9932 11.8817C18.9876 11.7023 19.0171 11.5236 19.0799 11.3557C19.1427 11.1879 19.2377 11.0343 19.3592 10.9038C19.5306 10.7151 19.7189 10.5393 19.9051 10.3677C20.545 9.80665 21.1485 9.20425 21.7119 8.56429C22.2861 7.8834 22.6948 7.07548 22.9051 6.20544C23.0057 5.82301 23.0266 5.42352 22.9665 5.03245C22.9368 4.80139 22.8356 4.5858 22.6775 4.41666C22.5193 4.24752 22.3124 4.13353 22.0863 4.09105C21.9039 4.05436 21.7178 4.03996 21.532 4.04817H18.6399C18.6134 4.04817 18.586 4.05051 18.5583 4.05288C18.4533 4.06186 18.3427 4.07132 18.2506 3.95596V2.78725C18.2553 2.46108 18.2205 2.13555 18.1469 1.81798C17.8571 0.717898 16.8437 0.00595311 15.6081 0.0252528C15.0622 0.0238116 14.5313 0.206596 14.0992 0.544783C13.6671 0.882971 13.3584 1.35732 13.2217 1.89303C13.1577 2.19453 13.1286 2.50253 13.1349 2.81084V4.04602C12.1805 4.05637 11.8373 4.05395 11.3505 4.05051C11.1017 4.04876 10.8154 4.04674 10.3909 4.04602V2.43342C10.3887 1.84202 10.1613 1.2743 9.75618 0.848706C9.39009 0.450354 8.91244 0.175172 8.38746 0.060162C7.86247 -0.0548476 7.31534 -0.00416928 6.81962 0.205383C5.88025 0.572077 5.30903 1.43628 5.28998 2.53421ZM9.58333 9.58333C9.58333 8.52479 10.4415 7.66667 11.5 7.66667C12.5585 7.66667 13.4167 8.52479 13.4167 9.58333V11.5H15.3333C16.3919 11.5 17.25 12.3581 17.25 13.4167C17.25 14.4752 16.3919 15.3333 15.3333 15.3333H13.4167V17.25C13.4167 18.3085 12.5585 19.1667 11.5 19.1667C10.4415 19.1667 9.58333 18.3085 9.58333 17.25V15.3333H7.66667C6.60812 15.3333 5.75 14.4752 5.75 13.4167C5.75 12.3581 6.60812 11.5 7.66667 11.5H9.58333V9.58333Z" fill="white"/>
</svg>

<svg xmlns="http://www.w3.org/2000/svg" width="23" height="24" fill="none"><path fill="#11E173" d="M12.458 9.583a.958.958 0 0 0-1.916 0v2.875H7.667a.958.958 0 0 0 0 1.917h2.875v2.875a.958.958 0 0 0 1.916 0v-2.875h2.875a.958.958 0 0 0 0-1.917h-2.875z"/><path fill="#fff" fill-rule="evenodd" d="M5.29 2.534v1.501H1.334C.443 4.044.026 4.468 0 5.352c-.01.498.082.992.27 1.452a6.35 6.35 0 0 0 1.54 2.324q.794.75 1.598 1.501a1.892 1.892 0 0 1 .635 1.501c-.023 1.303-.015 2.606-.008 3.91q.007.977.008 1.955-.011.568.07 1.128a5.8 5.8 0 0 0 1.92 3.482 5.65 5.65 0 0 0 3.69 1.388c.783.01 1.56.007 2.336.004q.581-.003 1.166-.004c.456 0 .911-.052 1.356-.156 1.247-.291 2.36-1 3.161-2.011a5.8 5.8 0 0 0 1.25-3.565 458 458 0 0 0 0-6.38 1.38 1.38 0 0 1 .366-.977 9 9 0 0 1 .546-.536 20 20 0 0 0 1.807-1.804 5.76 5.76 0 0 0 1.193-2.359c.1-.382.122-.781.061-1.173a1.1 1.1 0 0 0-.289-.615 1.1 1.1 0 0 0-.59-.326 2.3 2.3 0 0 0-.555-.043H18.64l-.082.005c-.105.009-.215.018-.307-.097V2.787a4 4 0 0 0-.104-.969c-.29-1.1-1.303-1.812-2.539-1.793a2.44 2.44 0 0 0-1.509.52c-.432.338-.74.812-.877 1.348q-.096.454-.087.918v1.235c-.954.01-1.298.008-1.784.005-.25-.002-.536-.004-.96-.005V2.433A2.3 2.3 0 0 0 9.756.85 2.62 2.62 0 0 0 8.387.06 2.6 2.6 0 0 0 6.82.205c-.94.367-1.511 1.231-1.53 2.33m4.293 7.05a1.917 1.917 0 0 1 3.834 0V11.5h1.916a1.917 1.917 0 1 1 0 3.833h-1.916v1.917a1.917 1.917 0 0 1-3.834 0v-1.917H7.667a1.917 1.917 0 1 1 0-3.833h1.916z" clip-rule="evenodd" opacity=".5"/></svg>
